!!! OTL: Berkowitz83
!!! Chapter: 1
!!! Section: I
!!! Page: 21
!!! Mode: 
!!! Encoder: DJB
**kern
*staff1
*I"Piano
=1-
*clefG2
*k[f#c#g#]
*A:
*M6/8
4a/
8b\
4cc#\
16b/LL
16a/JJ
=2
8b\L
8cc#\
8dd\J
4ee\
8cc#\
=3
8.dd\L
16cc#\K
8b\J
8.cc#\L
16b\K
8a\J
=4
8b/L
8a/
8g#/J
4f#/
8e/
=5
8.a/L
16g#/K
8a/J
8b/L
8a/
8b/J
=6
8.cc#\L
16b\K
8cc#\J
4dd\
16cc#\LL
16b\JJ
=7
!!linebreak:original
8a/L
8e/
8cc#/J
4b\
16cc#\LL
16b\JJ
=8
4.a/
4.b\
=9
8.cc#\L
16b\K
8a\J
8e/L
8f#/
8g#/J
=10
4a/
16cc#\LL
16b\JJ
4.a/
==
*-
